Newaita-dark/.places-mint/22/folder-photos.svg

<?xml version="1.0" encoding="UTF-8"?>
<svg xmlns="http://www.w3.org/2000/svg" xmlns:xlink="http://www.w3.org/1999/xlink" width="22px" height="22px" viewBox="0 0 22 22" version="1.1">
<defs>
<linearGradient id="linear0" gradientUnits="userSpaceOnUse" x1="254" y1="233.5" x2="254" y2="254.666672" gradientTransform="matrix(0.0429729,0,0,0.0429729,-0.00000262285,9.239166)">
<stop offset="0" style="stop-color:rgb(0%,0%,0%);stop-opacity:0.27451;"/>
<stop offset="1" style="stop-color:rgb(0%,0%,0%);stop-opacity:0;"/>
</linearGradient>
<radialGradient id="radial0" gradientUnits="userSpaceOnUse" cx="450.908936" cy="189.579361" fx="450.908936" fy="189.579361" r="21.166656" gradientTransform="matrix(0.000000119742,-0.0537161,-0.0966889,-0.0000000698078,37.204209,43.721792)">
<stop offset="0" style="stop-color:rgb(0%,0%,0%);stop-opacity:0.313726;"/>
<stop offset="0.222222" style="stop-color:rgb(0%,0%,0%);stop-opacity:0.27451;"/>
<stop offset="1" style="stop-color:rgb(0%,0%,0%);stop-opacity:0;"/>
</radialGradient>
<radialGradient id="radial1" gradientUnits="userSpaceOnUse" cx="450.908936" cy="189.579361" fx="450.908936" fy="189.579361" r="21.166656" gradientTransform="matrix(-0.000000119742,0.0537161,0.0966889,0.0000000698078,-15.373997,-5.17514)">
<stop offset="0" style="stop-color:rgb(0%,0%,0%);stop-opacity:0.313726;"/>
<stop offset="0.222222" style="stop-color:rgb(0%,0%,0%);stop-opacity:0.27451;"/>
<stop offset="1" style="stop-color:rgb(0%,0%,0%);stop-opacity:0;"/>
</radialGradient>
<radialGradient id="radial2" gradientUnits="userSpaceOnUse" cx="450.908936" cy="189.579361" fx="450.908936" fy="189.579361" r="21.166656" gradientTransform="matrix(-0.000000119742,-0.0537161,0.0966889,-0.0000000698078,-15.373997,43.721792)">
<stop offset="0" style="stop-color:rgb(0%,0%,0%);stop-opacity:0.313726;"/>
<stop offset="0.222222" style="stop-color:rgb(0%,0%,0%);stop-opacity:0.27451;"/>
<stop offset="1" style="stop-color:rgb(0%,0%,0%);stop-opacity:0;"/>
</radialGradient>
<radialGradient id="radial3" gradientUnits="userSpaceOnUse" cx="450.908936" cy="189.579361" fx="450.908936" fy="189.579361" r="21.166656" gradientTransform="matrix(0.000000119742,0.0537161,-0.0966889,0.0000000698078,37.204207,-5.175141)">
<stop offset="0" style="stop-color:rgb(0%,0%,0%);stop-opacity:0.313726;"/>
<stop offset="0.222222" style="stop-color:rgb(0%,0%,0%);stop-opacity:0.27451;"/>
<stop offset="1" style="stop-color:rgb(0%,0%,0%);stop-opacity:0;"/>
</radialGradient>
<linearGradient id="linear1" gradientUnits="userSpaceOnUse" x1="254" y1="-147.5" x2="254" y2="-31.083334" gradientTransform="matrix(0.0429729,0,0,0.0429729,0.000000859205,9.239162)">
<stop offset="0" style="stop-color:rgb(64.313728%,64.313728%,64.313728%);stop-opacity:0;"/>
<stop offset="1" style="stop-color:rgb(100%,100%,100%);stop-opacity:0.196078;"/>
</linearGradient>
<linearGradient id="linear2" gradientUnits="userSpaceOnUse" x1="254" y1="233.5" x2="254" y2="-105.166656" gradientTransform="matrix(0.0429729,0,0,0.0429729,-0.00000124602,9.239163)">
<stop offset="0" style="stop-color:rgb(34.509805%,34.509805%,34.509805%);stop-opacity:0;"/>
<stop offset="1" style="stop-color:rgb(98.039216%,98.039216%,98.039216%);stop-opacity:0.196078;"/>
</linearGradient>
</defs>
<g id="surface1">
<path style=" stroke:none;fill-rule:nonzero;fill:url(#linear0);" d="M 2.730469 19.273438 L 19.101562 19.273438 L 19.101562 20.183594 L 2.730469 20.183594 Z M 2.730469 19.273438 "/>
<path style=" stroke:none;fill-rule:nonzero;fill:url(#radial0);" d="M 19.101562 19.273438 L 20.921875 19.273438 L 20.921875 18.363281 L 19.101562 18.363281 Z M 19.101562 19.273438 "/>
<path style=" stroke:none;fill-rule:nonzero;fill:url(#radial1);" d="M 2.730469 19.273438 L 0.910156 19.273438 L 0.910156 20.183594 L 2.730469 20.183594 Z M 2.730469 19.273438 "/>
<path style=" stroke:none;fill-rule:nonzero;fill:url(#radial2);" d="M 2.730469 19.273438 L 0.910156 19.273438 L 0.910156 18.363281 L 2.730469 18.363281 Z M 2.730469 19.273438 "/>
<path style=" stroke:none;fill-rule:nonzero;fill:url(#radial3);" d="M 19.101562 19.273438 L 20.921875 19.273438 L 20.921875 20.183594 L 19.101562 20.183594 Z M 19.101562 19.273438 "/>
<path style=" stroke:none;fill-rule:nonzero;fill:rgb(61.176473%,80.000001%,39.607844%);fill-opacity:1;" d="M 5.003906 2.902344 L 19.785156 2.902344 C 20.285156 2.902344 20.691406 3.308594 20.691406 3.808594 L 20.691406 7.222656 C 20.691406 7.722656 20.285156 8.128906 19.785156 8.128906 L 5.003906 8.128906 C 4.5 8.128906 4.09375 7.722656 4.09375 7.222656 L 4.09375 3.808594 C 4.09375 3.308594 4.5 2.902344 5.003906 2.902344 Z M 5.003906 2.902344 "/>
<path style=" stroke:none;fill-rule:nonzero;fill:url(#linear1);" d="M 5.003906 2.902344 L 19.785156 2.902344 C 20.285156 2.902344 20.691406 3.308594 20.691406 3.808594 L 20.691406 7.222656 C 20.691406 7.722656 20.285156 8.128906 19.785156 8.128906 L 5.003906 8.128906 C 4.5 8.128906 4.09375 7.722656 4.09375 7.222656 L 4.09375 3.808594 C 4.09375 3.308594 4.5 2.902344 5.003906 2.902344 Z M 5.003906 2.902344 "/>
<path style=" stroke:none;fill-rule:nonzero;fill:rgb(100%,100%,100%);fill-opacity:0.392157;" d="M 5.003906 2.957031 C 4.5 2.957031 4.09375 3.363281 4.09375 3.867188 L 4.09375 3.980469 C 4.09375 3.476562 4.5 3.070312 5.003906 3.070312 L 19.785156 3.070312 C 20.289062 3.070312 20.691406 3.476562 20.691406 3.980469 L 20.691406 3.867188 C 20.691406 3.363281 20.289062 2.957031 19.785156 2.957031 Z M 5.003906 2.957031 "/>
<path style=" stroke:none;fill-rule:nonzero;fill:rgb(12.941177%,12.941177%,12.941177%);fill-opacity:1;" d="M 5.003906 2.835938 C 4.464844 2.835938 4.027344 3.273438 4.027344 3.808594 L 4.027344 7.222656 C 4.027344 7.757812 4.464844 8.195312 5.003906 8.195312 L 19.785156 8.195312 C 20.320312 8.195312 20.757812 7.757812 20.757812 7.222656 L 20.757812 3.808594 C 20.757812 3.273438 20.320312 2.835938 19.785156 2.835938 Z M 5.003906 2.964844 L 19.785156 2.964844 C 20.253906 2.964844 20.628906 3.339844 20.628906 3.808594 L 20.628906 7.222656 C 20.628906 7.691406 20.253906 8.066406 19.785156 8.066406 L 5.003906 8.066406 C 4.535156 8.066406 4.15625 7.691406 4.15625 7.222656 L 4.15625 3.808594 C 4.15625 3.339844 4.535156 2.964844 5.003906 2.964844 Z M 5.003906 2.964844 "/>
<path style=" stroke:none;fill-rule:nonzero;fill:rgb(68.235296%,83.529413%,50.588238%);fill-opacity:1;" d="M 1.820312 4.71875 C 1.316406 4.71875 0.910156 5.125 0.910156 5.628906 L 0.910156 18.363281 C 0.910156 18.867188 1.316406 19.273438 1.820312 19.273438 L 20.011719 19.273438 C 20.515625 19.273438 20.921875 18.867188 20.921875 18.363281 L 20.921875 6.992188 L 8.640625 6.992188 C 8.136719 6.992188 7.730469 6.589844 7.730469 6.085938 L 7.730469 4.71875 Z M 1.820312 4.71875 "/>
<path style=" stroke:none;fill-rule:nonzero;fill:url(#linear2);" d="M 1.820312 4.71875 C 1.316406 4.71875 0.910156 5.125 0.910156 5.628906 L 0.910156 18.363281 C 0.910156 18.867188 1.316406 19.273438 1.820312 19.273438 L 20.011719 19.273438 C 20.515625 19.273438 20.921875 18.867188 20.921875 18.363281 L 20.921875 6.992188 L 8.640625 6.992188 C 8.136719 6.992188 7.730469 6.589844 7.730469 6.085938 L 7.730469 4.71875 Z M 1.820312 4.71875 "/>
<path style=" stroke:none;fill-rule:nonzero;fill:rgb(0%,0%,0%);fill-opacity:0.196078;" d="M 1.820312 19.273438 C 1.316406 19.273438 0.910156 18.867188 0.910156 18.363281 L 0.910156 18.25 C 0.910156 18.753906 1.316406 19.160156 1.820312 19.160156 L 20.011719 19.160156 C 20.515625 19.160156 20.921875 18.753906 20.921875 18.25 L 20.921875 18.363281 C 20.921875 18.867188 20.515625 19.273438 20.011719 19.273438 Z M 1.820312 19.273438 "/>
<path style=" stroke:none;fill-rule:nonzero;fill:rgb(100%,100%,100%);fill-opacity:0.392157;" d="M 1.820312 4.777344 C 1.316406 4.777344 0.910156 5.183594 0.910156 5.6875 L 0.910156 5.800781 C 0.910156 5.296875 1.316406 4.890625 1.820312 4.890625 L 7.730469 4.890625 L 7.730469 4.777344 Z M 1.820312 4.777344 "/>
<path style=" stroke:none;fill-rule:nonzero;fill:rgb(100%,100%,100%);fill-opacity:0.392157;" d="M 8.585938 7.109375 C 8.082031 7.109375 7.675781 6.703125 7.675781 6.199219 L 7.675781 6.085938 C 7.675781 6.589844 8.082031 6.996094 8.585938 6.992188 L 20.921875 6.992188 L 20.921875 7.109375 Z M 8.585938 7.109375 "/>
<path style=" stroke:none;fill-rule:nonzero;fill:rgb(12.941177%,12.941177%,12.941177%);fill-opacity:1;" d="M 1.820312 4.65625 C 1.28125 4.65625 0.84375 5.089844 0.84375 5.628906 L 0.84375 18.363281 C 0.84375 18.902344 1.28125 19.335938 1.820312 19.335938 L 20.011719 19.335938 C 20.550781 19.335938 20.984375 18.902344 20.984375 18.363281 L 20.984375 6.863281 L 8.640625 6.863281 C 8.171875 6.863281 7.796875 6.488281 7.796875 6.019531 L 7.796875 4.65625 Z M 1.820312 4.785156 L 7.667969 4.785156 L 7.667969 6.019531 C 7.667969 6.558594 8.101562 6.992188 8.640625 6.992188 L 20.855469 6.992188 L 20.855469 18.363281 C 20.855469 18.832031 20.480469 19.207031 20.011719 19.207031 L 1.820312 19.207031 C 1.351562 19.207031 0.972656 18.832031 0.972656 18.363281 L 0.972656 5.628906 C 0.972656 5.160156 1.351562 4.785156 1.820312 4.785156 Z M 1.820312 4.785156 "/>
<path style=" stroke:none;fill-rule:nonzero;fill:rgb(54.509807%,76.47059%,29.019609%);fill-opacity:1;" d="M 10.460938 8.8125 C 9.957031 8.8125 9.550781 9.21875 9.550781 9.722656 L 8.1875 9.722656 C 7.683594 9.722656 7.277344 10.128906 7.277344 10.632812 L 7.277344 14.726562 C 7.277344 15.230469 7.683594 15.636719 8.1875 15.636719 L 13.644531 15.636719 C 14.148438 15.636719 14.554688 15.230469 14.554688 14.726562 L 14.554688 10.632812 C 14.554688 10.128906 14.148438 9.722656 13.644531 9.722656 L 12.28125 9.722656 C 12.28125 9.21875 11.875 8.8125 11.371094 8.8125 Z M 10.914062 10.859375 C 11.921875 10.859375 12.734375 11.671875 12.734375 12.679688 C 12.734375 13.6875 11.921875 14.496094 10.914062 14.496094 C 9.90625 14.496094 9.097656 13.6875 9.097656 12.679688 C 9.097656 11.671875 9.90625 10.859375 10.914062 10.859375 Z M 10.914062 10.859375 "/>
<path style=" stroke:none;fill-rule:nonzero;fill:rgb(100%,100%,100%);fill-opacity:0.392157;" d="M 10.914062 10.859375 C 9.90625 10.859375 9.097656 11.671875 9.097656 12.679688 C 9.097656 12.707031 9.097656 12.734375 9.097656 12.765625 C 9.140625 11.796875 9.9375 11.03125 10.914062 11.03125 C 11.894531 11.03125 12.6875 11.796875 12.730469 12.765625 C 12.734375 12.734375 12.734375 12.707031 12.734375 12.679688 C 12.734375 11.671875 11.921875 10.859375 10.914062 10.859375 Z M 7.277344 14.726562 L 7.277344 14.894531 C 7.277344 15.398438 7.683594 15.804688 8.1875 15.804688 L 13.644531 15.804688 C 14.148438 15.804688 14.554688 15.398438 14.554688 14.894531 L 14.554688 14.726562 C 14.554688 15.230469 14.148438 15.636719 13.644531 15.636719 L 8.1875 15.636719 C 7.683594 15.636719 7.277344 15.230469 7.277344 14.726562 Z M 7.277344 14.726562 "/>
<path style=" stroke:none;fill-rule:nonzero;fill:rgb(0%,0%,0%);fill-opacity:0.235294;" d="M 10.460938 8.8125 C 9.957031 8.8125 9.550781 9.21875 9.550781 9.722656 L 8.1875 9.722656 C 7.683594 9.722656 7.277344 10.128906 7.277344 10.632812 L 7.277344 10.816406 C 7.277344 10.3125 7.683594 9.90625 8.1875 9.90625 L 9.550781 9.90625 C 9.550781 9.402344 9.957031 8.996094 10.460938 8.996094 L 11.371094 8.996094 C 11.875 8.996094 12.28125 9.402344 12.28125 9.90625 L 13.644531 9.90625 C 14.148438 9.90625 14.554688 10.3125 14.554688 10.816406 L 14.554688 10.632812 C 14.554688 10.128906 14.148438 9.722656 13.644531 9.722656 L 12.28125 9.722656 C 12.28125 9.21875 11.875 8.8125 11.371094 8.8125 Z M 9.105469 12.847656 C 9.097656 12.90625 9.097656 12.960938 9.097656 13.019531 C 9.097656 13.050781 9.097656 13.082031 9.097656 13.113281 C 9.097656 13.085938 9.101562 13.058594 9.105469 13.03125 C 9.1875 13.960938 9.964844 14.683594 10.914062 14.683594 C 11.867188 14.683594 12.640625 13.960938 12.726562 13.03125 C 12.730469 13.058594 12.730469 13.085938 12.730469 13.113281 C 12.734375 13.082031 12.734375 13.050781 12.734375 13.019531 C 12.734375 12.960938 12.730469 12.90625 12.726562 12.847656 C 12.640625 13.777344 11.867188 14.496094 10.914062 14.496094 C 9.964844 14.496094 9.1875 13.777344 9.105469 12.847656 Z M 9.105469 12.847656 "/>
<path style="fill:none;stroke-width:11.338583;stroke-linecap:round;stroke-linejoin:round;stroke:rgb(12.941177%,12.941177%,12.941177%);stroke-opacity:1;stroke-miterlimit:4;" d="M 920.055351 775.072768 C 875.736031 775.072768 840.005726 810.803073 840.005726 855.122393 L 720.103068 855.122393 C 675.783748 855.122393 640.053443 890.852698 640.053443 935.172019 L 640.053443 1295.223553 C 640.053443 1339.542873 675.783748 1375.273178 720.103068 1375.273178 L 1200.05726 1375.273178 C 1244.376581 1375.273178 1280.106885 1339.542873 1280.106885 1295.223553 L 1280.106885 935.172019 C 1280.106885 890.852698 1244.376581 855.122393 1200.05726 855.122393 L 1080.154602 855.122393 C 1080.154602 810.803073 1044.424297 775.072768 1000.104977 775.072768 Z M 959.908384 955.098535 C 1048.547025 955.098535 1120.007635 1026.559145 1120.007635 1115.197786 C 1120.007635 1203.836427 1048.547025 1274.953476 959.908384 1274.953476 C 871.269743 1274.953476 800.152694 1203.836427 800.152694 1115.197786 C 800.152694 1026.559145 871.269743 955.098535 959.908384 955.098535 Z M 959.908384 955.098535 " transform="matrix(0.0113699,0,0,0.0113699,0,0)"/>
</g>
</svg>

<svg xmlns="http://www.w3.org/2000/svg" width="22" height="22"><defs><linearGradient id="a" gradientUnits="userSpaceOnUse" x1="254" y1="233.5" x2="254" y2="254.667" gradientTransform="matrix(.04297 0 0 .04297 0 9.24)"><stop offset="0" stop-opacity=".275"/><stop offset="1" stop-opacity="0"/></linearGradient><radialGradient id="b" gradientUnits="userSpaceOnUse" cx="450.909" cy="189.579" fx="450.909" fy="189.579" r="21.167" gradientTransform="matrix(0 -.05372 -.09669 0 37.204 43.722)"><stop offset="0" stop-opacity=".314"/><stop offset=".222" stop-opacity=".275"/><stop offset="1" stop-opacity="0"/></radialGradient><radialGradient id="c" gradientUnits="userSpaceOnUse" cx="450.909" cy="189.579" fx="450.909" fy="189.579" r="21.167" gradientTransform="matrix(0 .05372 .09669 0 -15.374 -5.175)"><stop offset="0" stop-opacity=".314"/><stop offset=".222" stop-opacity=".275"/><stop offset="1" stop-opacity="0"/></radialGradient><radialGradient id="d" gradientUnits="userSpaceOnUse" cx="450.909" cy="189.579" fx="450.909" fy="189.579" r="21.167" gradientTransform="matrix(0 -.05372 .09669 0 -15.374 43.722)"><stop offset="0" stop-opacity=".314"/><stop offset=".222" stop-opacity=".275"/><stop offset="1" stop-opacity="0"/></radialGradient><radialGradient id="e" gradientUnits="userSpaceOnUse" cx="450.909" cy="189.579" fx="450.909" fy="189.579" r="21.167" gradientTransform="matrix(0 .05372 -.09669 0 37.204 -5.175)"><stop offset="0" stop-opacity=".314"/><stop offset=".222" stop-opacity=".275"/><stop offset="1" stop-opacity="0"/></radialGradient><linearGradient id="f" gradientUnits="userSpaceOnUse" x1="254" y1="-147.5" x2="254" y2="-31.083" gradientTransform="matrix(.04297 0 0 .04297 0 9.24)"><stop offset="0" stop-color="#a4a4a4" stop-opacity="0"/><stop offset="1" stop-color="#fff" stop-opacity=".196"/></linearGradient><linearGradient id="g" gradientUnits="userSpaceOnUse" x1="254" y1="233.5" x2="254" y2="-105.167" gradientTransform="matrix(.04297 0 0 .04297 0 9.24)"><stop offset="0" stop-color="#585858" stop-opacity="0"/><stop offset="1" stop-color="#fafafa" stop-opacity=".196"/></linearGradient><linearGradient id="h" gradientUnits="userSpaceOnUse" x1="254" y1="-147.5" x2="254" y2="233.5" gradientTransform="matrix(.04297 0 0 .04297 0 9.24)"><stop offset="0" stop-color="#a4a4a4" stop-opacity="0"/><stop offset="1" stop-color="#fff" stop-opacity=".196"/></linearGradient></defs><path d="M2.73 19.273h16.372v.91H2.73zm0 0" fill="url(#a)"/><path d="M19.102 19.273h1.82v-.91h-1.82zm0 0" fill="url(#b)"/><path d="M2.73 19.273H.91v.91h1.82zm0 0" fill="url(#c)"/><path d="M2.73 19.273H.91v-.91h1.82zm0 0" fill="url(#d)"/><path d="M19.102 19.273h1.82v.91h-1.82zm0 0" fill="url(#e)"/><path d="M5.004 2.902h14.781c.5 0 .906.407.906.907v3.414c0 .5-.406.906-.906.906H5.004a.908.908 0 0 1-.91-.906V3.809c0-.5.406-.907.91-.907zm0 0" fill="#7cb342"/><path d="M5.004 2.902h14.781c.5 0 .906.407.906.907v3.414c0 .5-.406.906-.906.906H5.004a.908.908 0 0 1-.91-.906V3.809c0-.5.406-.907.91-.907zm0 0" fill="url(#f)"/><path d="M5.004 2.902a.905.905 0 0 0-.91.907v.117c0-.504.406-.91.91-.91h14.781c.504 0 .906.406.906.91v-.117a.902.902 0 0 0-.906-.907zm0 0" fill="#e6e6e6" fill-opacity=".588"/><path d="M5.004 2.836a.976.976 0 0 0-.977.973v3.414c0 .535.438.972.977.972h14.781a.975.975 0 0 0 .973-.972V3.809a.975.975 0 0 0-.973-.973zm0 .129h14.781a.84.84 0 0 1 .844.844v3.414a.84.84 0 0 1-.844.843H5.004a.844.844 0 0 1-.848-.843V3.809c0-.47.38-.844.848-.844zm0 0" fill="#212121"/><path d="M1.82 4.719a.909.909 0 0 0-.91.91v12.734c0 .504.406.91.91.91h18.192c.504 0 .91-.406.91-.91V6.993H8.64a.905.905 0 0 1-.91-.907V4.719zm0 0" fill="#9ccc65"/><path d="M1.82 4.719a.909.909 0 0 0-.91.91v12.734c0 .504.406.91.91.91h18.192c.504 0 .91-.406.91-.91V6.993H8.64a.905.905 0 0 1-.91-.907V4.719zm0 0" fill="url(#g)"/><path d="M1.82 19.273a.909.909 0 0 1-.91-.91v-.113c0 .504.406.91.91.91h18.192c.504 0 .91-.406.91-.91v.113c0 .504-.406.91-.91.91zm0 0" fill-opacity=".196"/><path d="M1.82 4.719a.909.909 0 0 0-.91.91v.113c0-.504.406-.91.91-.91h5.91v-.113zm0 0M8.586 7.05a.909.909 0 0 1-.91-.91v-.113c0 .504.406.91.91.91h12.336v.114zm0 0" fill="#e6e6e6" fill-opacity=".937"/><path d="M1.82 4.656a.974.974 0 0 0-.976.973v12.734c0 .54.437.973.976.973h18.192a.97.97 0 0 0 .972-.973v-11.5H8.641a.84.84 0 0 1-.844-.843V4.656zm0 .13h5.848V6.02c0 .539.434.972.973.972h12.214v11.371a.84.84 0 0 1-.843.844H1.82a.844.844 0 0 1-.847-.844V5.63c0-.469.379-.844.847-.844zm0 0" fill="#212121"/><path d="M10.012 9.27c-.25 0-.453.199-.453.453v.453h-1.82a.454.454 0 0 0-.454.457v4.094c0 .25.203.453.453.453h.457c0 .254.203.457.453.457h4.547a.455.455 0 0 0 .457-.457h.453a.454.454 0 0 0 .457-.453v-4.094a.455.455 0 0 0-.457-.457h-1.82v-.453c0-.254-.2-.453-.453-.453zm.91 1.816c1.008 0 1.82.812 1.82 1.82s-.812 1.82-1.82 1.82a1.814 1.814 0 0 1-1.817-1.82c0-1.008.81-1.82 1.817-1.82zm0 0" fill="#7cb342"/><path d="M10.012 9.27c-.25 0-.453.199-.453.453v.453h-1.82a.454.454 0 0 0-.454.457v4.094c0 .25.203.453.453.453h.457c0 .254.203.457.453.457h4.547a.455.455 0 0 0 .457-.457h.453a.454.454 0 0 0 .457-.453v-4.094a.455.455 0 0 0-.457-.457h-1.82v-.453c0-.254-.2-.453-.453-.453zm.91 1.816c1.008 0 1.82.812 1.82 1.82s-.812 1.82-1.82 1.82a1.814 1.814 0 0 1-1.817-1.82c0-1.008.81-1.82 1.817-1.82zm0 0" fill="url(#h)"/><path d="M10.012 9.203a.522.522 0 0 0-.52.52v.39H7.738a.52.52 0 0 0-.52.52v4.094c0 .285.235.52.52.52h.403a.518.518 0 0 0 .507.452h4.547c.266 0 .473-.199.508-.453h.402a.52.52 0 0 0 .52-.52v-4.093c0-.29-.23-.52-.52-.52h-1.753v-.39a.522.522 0 0 0-.52-.52zm0 .129h1.82c.219 0 .39.172.39.39v.52h1.883c.22 0 .391.172.391.39v4.095a.39.39 0 0 1-.39.39h-.52v.063c0 .218-.172.39-.39.39H8.647a.387.387 0 0 1-.39-.39v-.063h-.52a.392.392 0 0 1-.39-.39v-4.094a.39.39 0 0 1 .39-.39h1.883v-.52a.39.39 0 0 1 .39-.391zm.91 1.691c-1.043 0-1.883.84-1.883 1.883 0 1.043.84 1.883 1.883 1.883 1.043 0 1.883-.84 1.883-1.883 0-1.043-.84-1.883-1.883-1.883zm0 .13c.973 0 1.754.78 1.754 1.753 0 .973-.781 1.754-1.754 1.754a1.749 1.749 0 0 1-1.754-1.754c0-.972.781-1.754 1.754-1.754zm0 0" fill="#212121"/></svg>
